Papirus/22x22/panel/indicator-stardate.svg

<?xml version="1.0" encoding="UTF-8" standalone="no"?>
<svg id="svg2" xmlns:rdf="http://www.w3.org/1999/02/22-rdf-syntax-ns#" xmlns="http://www.w3.org/2000/svg" viewBox="0 0 22 22" width="22" version="1.1" xmlns:cc="http://creativecommons.org/ns#" height="22" xmlns:dc="http://purl.org/dc/elements/1.1/">
 <metadata id="metadata14">
  <rdf:RDF>
   <cc:Work rdf:about="">
    <dc:format>image/svg+xml</dc:format>
    <dc:type rdf:resource="http://purl.org/dc/dcmitype/StillImage"/>
    <dc:title/>
   </cc:Work>
  </rdf:RDF>
 </metadata>
 <g id="g4" transform="translate(-1,-1029.4)" fill="#fff">
  <path id="path6" d="m12 1032.4c-2 0-5 9-5 16 2-3 5-6 6-6s2.1116 2 4.1116 5c-0.11161-6-3.1116-15-5.1116-15z" fill-rule="evenodd"/>
  <path id="path8" d="m12 6a6 6 0 0 0 -0.781 0.0586c-0.497 0.8503-1.037 2.125-1.5159 3.6211-0.6682 2.0883-1.1173 4.5773-1.3945 7.0413a6 6 0 0 0 0.0527 0.041c0.4469-0.536 0.867-1.154 1.3067-1.594 0.589-0.589 1.149-1.085 1.668-1.461s0.914-0.707 1.664-0.707c0.583 0 1.054 0.279 1.43 0.598 0.375 0.319 0.703 0.711 1.052 1.179 0.046 0.062 0.116 0.177 0.163 0.241-0.326-1.88-0.764-3.778-1.329-5.4477-0.483-1.4315-1.025-2.6744-1.523-3.5117a6 6 0 0 0 -0.793 -0.0586zm-3.5059 1.1406a6 6 0 0 0 -2.4941 4.8594 6 6 0 0 0 0.5078 2.398c0.3206-1.881 0.7715-3.71 1.2891-5.3277 0.2205-0.6892 0.4552-1.3292 0.6972-1.9297zm7.0429 0.0215c0.232 0.5609 0.46 1.1379 0.674 1.7695 0.549 1.6244 1.026 3.4424 1.367 5.2614a6 6 0 0 0 0.422 -2.193 6 6 0 0 0 -2.463 -4.8379zm-2.537 7.8379c-0.055 0-0.033 0.006 0.023 0.041 0.064-0.029 0.081-0.041-0.023-0.041zm0.023 0.041c-0.089 0.041-0.289 0.121-0.515 0.285-0.388 0.281-0.89 0.72-1.426 1.256-0.329 0.329-0.671 0.702-1.016 1.092a6 6 0 0 0 1.934 0.326 6 6 0 0 0 2.793 -0.693c-0.336-0.507-0.649-0.977-0.914-1.332-0.304-0.407-0.566-0.702-0.742-0.852-0.061-0.051-0.084-0.064-0.114-0.082z" transform="translate(0,1028.4)"/>
 </g>
</svg>

<?xml version="1.0" encoding="UTF-8" standalone="no"?>
<svg xmlns:dc="http://purl.org/dc/elements/1.1/" xmlns:cc="http://creativecommons.org/ns#" xmlns:rdf="http://www.w3.org/1999/02/22-rdf-syntax-ns#" xmlns:svg="http://www.w3.org/2000/svg" xmlns="http://www.w3.org/2000/svg" id="svg2" viewBox="0 0 22 22" version="1.1" width="22" height="22">
    <metadata id="metadata14">
        <rdf:RDF>
            <cc:Work rdf:about="">
                <dc:format>
                    image/svg+xml
                </dc:format>
                <dc:type rdf:resource="http://purl.org/dc/dcmitype/StillImage"/>
                <dc:title/>
            </cc:Work>
        </rdf:RDF>
    </metadata>
    <g style="fill:#ffffff;fill-opacity:1;opacity:1" id="g4" transform="translate(-1,-1029.4)">
        <path style="fill:#ffffff;fill-opacity:1;fill-rule:evenodd" id="path6" d="m 12,1032.4 c -2,0 -5,9 -5,16 2,-3 5,-6 6,-6 1,0 2.1116,2 4.1116,5 -0.11161,-6 -3.1116,-15 -5.1116,-15 z"/>
        <path style="fill:#ffffff;fill-opacity:1" id="path8" transform="translate(0,1028.4)" d="M 12,6 A 6,6 0 0 0 11.219,6.0586 C 10.722,6.9089 10.182,8.1836 9.7031,9.6797 9.0349,11.768 8.5858,14.257 8.3086,16.721 a 6,6 0 0 0 0.0527,0.041 c 0.4469,-0.536 0.867,-1.154 1.3067,-1.594 0.589,-0.589 1.149,-1.085 1.668,-1.461 C 11.855,13.331 12.25,13 13,13 c 0.583,0 1.054,0.279 1.43,0.598 0.375,0.319 0.703,0.711 1.052,1.179 0.046,0.062 0.116,0.177 0.163,0.241 C 15.319,13.138 14.881,11.24 14.316,9.5703 13.833,8.1388 13.291,6.8959 12.793,6.0586 A 6,6 0 0 0 12,6 Z M 8.4941,7.1406 A 6,6 0 0 0 6,12 6,6 0 0 0 6.5078,14.398 C 6.8284,12.517 7.2793,10.688 7.7969,9.0703 8.0174,8.3811 8.2521,7.7411 8.4941,7.1406 Z m 7.0429,0.0215 c 0.232,0.5609 0.46,1.1379 0.674,1.7695 0.549,1.6244 1.026,3.4424 1.367,5.2614 A 6,6 0 0 0 18,12 6,6 0 0 0 15.537,7.1621 Z M 13,15 c -0.055,0 -0.033,0.006 0.023,0.041 C 13.087,15.012 13.104,15 13,15 Z m 0.023,0.041 c -0.089,0.041 -0.289,0.121 -0.515,0.285 -0.388,0.281 -0.89,0.72 -1.426,1.256 -0.329,0.329 -0.671,0.702 -1.016,1.092 A 6,6 0 0 0 12,18 6,6 0 0 0 14.793,17.307 C 14.457,16.8 14.144,16.33 13.879,15.975 13.575,15.568 13.313,15.273 13.137,15.123 13.076,15.072 13.053,15.059 13.023,15.041 Z"/>
    </g>
</svg>
